X: 1
T: the Flower o' the Quern
C: J.S.Skinner
S: handwritten MS from the Woods Hole Folk Dancers
R: air
M: 4/4
L: 1/8
K: A
E2 \
| "A"A2 A2 "E7"G2 FE | "D"d2 d2 "A"c3 e | "A"e2 cB "F#m"A2 Bc | "Bm"B4- "E7"B2E2 \
| "A"A2 A2 "E7"G2 FE | "D"d2 d2 "A"c3 e | "Bm"ed FB "E7"A2G2 | "A"A4- A2 ||
A2 \
| "D"d2 d2 d2 ef | "A"e3 c e2 af | "A"e2 cB "F#m"A2 Bc | "Bm"B4- "E7"B2E2 \
| "A"A2 A2 "E7"G2 FE | "D"d2 d2 "A"c3 e | "Bm"ed FB "E7"A2G2 | "A"A4- A2 |]
